X:1
T:Only a Little While
T:George Coles Stebbins
T:Only a Little While
T:Public Domain
C:George Coles Stebbins
Z:Public Domain
%%score ( 1 2 ) 3
L:1/8
M:6/4
K:Bb
V:1 treble 
V:2 treble 
V:3 bass 
V:1
 [DF]2 [DF]2 [DF]2 [EF]4 [EF]2 | [FB]6- [FB]4 [^FA]2 | G2 G2 G2 [FG]4 [FG]2 | [Ec]6- [Ec]4 [Ec]2 | %4
w: 1.~On- ly a lit- tle|while * Of|walk- ing with wea- ry|tient- * ly|
w: 2.~Suf- fer if God shall|will, * And|work for Him while we|va- * ry’s|
w: 3.~On- ly a lit- tle|while, * For|toil- ing a few short|comes * the|
 [Ec]2 [EB]2 [EA]2 ([EA]2 [EG]2) [EF]2 | [DB]4 [DB]2 [EB]4 [EG]2 | [DF]2 [CF]2 [DF]2 [EF]4 [EF]2 | %7
w: over the thorn- y * way|That leads to the|gold- en street. * *|
w: cross to Zi- on’s * crown,|Is on- ly a|lit- tle way. * *|
w: rest, the qui- et * rest,|E- ter- ni- ty’s|end- less praise. * *|
 [DF]12 |] %8
w: |
w: |
w: |
V:2
 x12 | x12 | G2 G2 G2 x6 | x12 | x12 | x12 | x12 | x12 |] %8
w: ||feet, ~ Pa-||||||
w: ||may, From Cal-||||||
w: ||days, And then||||||
V:3
 [B,,B,]2 [B,,B,]2 [B,,B,]2 [C,A,]4 [C,A,]2 | [D,B,]6- [D,B,]4 [D,C]2 | %2
 [E,B,]2 [E,B,]2 [E,B,]2 [D,=B,]4 [D,B,]2 | [C,-C]6 [C,G,]4 [C,G,]2 | %4
 [F,A,]2 [F,G,]2 [F,C]2 ([F,C]2 [F,B,]2) [F,A,]2 | [G,B,]4 [F,_A,]2 [E,G,]4 [E,B,]2 | %6
 [F,B,]2 [F,A,]2 [F,B,]2 [F,C]4 [F,,A,]2 | [B,,B,]12 |] %8

